!!! OTL: Berkowitz594
!!! Chapter: 1
!!! Section: V
!!! Page: 150
!!! Mode: 
!!! Encoder: AR
**kern
*staff1
=1-
!!pagebreak:original
*clefG2
*k[]
*C:
*M12/8
8g/L
8f#/
8g/J
4e-/
8d-/
4B/
8fn/
4.f/
=2
8a/L
16g#/L
16a/
16b/
16a/JJ
4f/
8d-/
4dn/
8a-/
4.a-/
=3
8an/L
8f/
8d-/J
4dn/
8a/
8cc/L
8b/
8f/J
16e/LL
16c#/JJ
4c#/
=4
!!linebreak:original
8B/L
8A#/
8B/J
4f/
8e/
4e-/
8b-\
4.an/
=5
8bn\L
8cc\
8b\J
4g/
8en/
16e-/LL
16a/JJ
[4a/
4.a/]
=6
8g#/L
8b/
8a/J
4f/
8e-/
8f#/
[4d/
4.d/]
=7
!!linebreak:original
8c/L
8d-/
8c/J
4f#/
8en/
8dn/L
8en/
8d/J
4g#/
8f#/
=8
4cc\
8b-\
4.g-/
4a/
8a-/
4.fn/
=9
8e-/L
8d/
8e-/J
8f#/L
8gn/
8fn/J
2.en/
==
*-
